icons/svg/phone-incoming.svg

﻿<?xml version="1.0" encoding="utf-8"?>
<!DOCTYPE svg PUBLIC "-//W3C//DTD SVG 1.1//EN" "http://www.w3.org/Graphics/SVG/1.1/DTD/svg11.dtd">
<svg xmlns="http://www.w3.org/2000/svg" xmlns:xlink="http://www.w3.org/1999/xlink" version="1.1" baseProfile="full" width="24" height="24" viewBox="0 0 24.00 24.00" enable-background="new 0 0 24.00 24.00" xml:space="preserve">
	<path fill="#000000" fill-opacity="1" stroke-width="0.2" stroke-linejoin="miter" d="M 4,3C 3.45,3 3,3.45 3,4C 3,13.39 10.61,21 20,21C 20.55,21 21,20.55 21,20L 21,16.5C 21,15.95 20.55,15.5 20,15.5C 18.75,15.5 17.5497,15.2997 16.4297,14.9297C 16.0797,14.8197 15.6902,14.8999 15.4102,15.1699L 13.2109,17.3691C 10.3809,15.9291 8.05914,13.6193 6.61914,10.7793L 8.82031,8.5703C 9.10031,8.3103 9.18031,7.9203 9.07031,7.5703C 8.70031,6.4503 8.5,5.25 8.5,4C 8.5,3.45 8.05,3 7.5,3L 4,3 Z M 19,11L 19,9.5L 15.5,9.5L 21,4L 20,3L 14.5,8.5L 14.5,5L 13,5L 13,11L 19,11 Z "/>
</svg>

<svg xmlns="http://www.w3.org/2000/svg" version="1.1" baseProfile="full" width="24" height="24" viewBox="0 0 24.00 24.00" xml:space="preserve"><path fill="#000" fill-opacity="1" stroke-width=".2" stroke-linejoin="miter" d="M4 3c-.55 0-1 .45-1 1 0 9.39 7.61 17 17 17 .55 0 1-.45 1-1v-3.5c0-.55-.45-1-1-1-1.25 0-2.45-.2-3.57-.57-.35-.11-.74-.03-1.02.24l-2.2 2.2c-2.83-1.44-5.15-3.75-6.59-6.59l2.2-2.21c.28-.26.36-.65.25-1C8.7 6.45 8.5 5.25 8.5 4c0-.55-.45-1-1-1H4zm15 8V9.5h-3.5L21 4l-1-1-5.5 5.5V5H13v6h6z"/></svg>
